X:1
T:Catillion #9
T:A Collection of New Cotillons, “Francis,” No. 9
T:Francis Johnson (1792–1844)
C:F. Johnson
%%score { 1 | 2 }
L:1/8
M:6/8
K:F
V:1 treble nm="Piano" snm="Pno."
V:2 bass 
V:1
 c'/a/ | f2 f{/g} fef |{/a} g2 c cde |{/g} fef dbg | [Af]3 [Ge]c'a | f2 f{/g} fef | d^fa gbd' | %7
 c'af{/f} ede | [Bg]3 [Af]2 || A/B/ | c2 c{/d} c=Bc | A2 c{/d} c=Bc | G2 c{/d} c=Bc | FAc fac' | %14
{/d} c2 c{/d} c=Bc | A2 c{/d} c=Bc | G2 c{/d} c=Bc | [F,CF]3 z2 ||[K:Ab]"^minore" c | f2 c a2 f | %20
 g2 =e f2 c | f2 c A2 F | C3 z2 c | f2 c a2 f | gf=e f2 c' |{/=B} c2{/B} c{/B} c2{/B} c | %26
{/=B} [=EGc]3 z2 |] %27
V:2
 z | F,A,C F,A,C | E,G,C C,G,C | F,A,C B,,D,G, | C,F,A, C,F,A, | F,A,C F,A,C | %6
 [B,,,B,,]3 [B,,,B,,]3 | C,3 C,,3 | F,3 F,,2 || z | F,A,C F,A,C | F,A,C F,A,C | C,G,C C,G,C | %13
 [F,A,C]3 [F,A,C]3 | F,A,C F,A,C | F,A,C F,A,C | C,G,C C,G,C | [F,,F,]3 z2 ||[K:Ab] z | %19
 F,A,C F,A,C | =E,G,C F,A,C | F,A,C F,A,C | %22
"_The right hand half round the left the same - Ballancez on a line\nPromenade half round - Forward 2 - Back to Back\nForward 4 to your places.\n" [C,,C,]3 z z2 | %23
 F,A,C F,A,C | =E,G,C F,A,C | C,,2 C, C,,2 C, | [C,,C,]3 z2 |] %27

